X:13
T:The Session Mum
C:Mike Mahar
L:1/8
Q:1/4=120
M:2/2
K:D
|: dcdc d2B2 | ABAB A2G2 | F2FF G2A2 | E6E2 | D2DD F2A2 | G2GG B2d2 | ABAG F2E2 | \
|1 D6A,2 :|2 D8 |
|: BBBB B2d2 | cdcd c2A2 | GABd c2A2 | E6E2 | D2DD F2A2 |
 G2GG B2d2 | ABAG F2E2 |1 D6A,2 :|2 D8 |]

